X:1
T:For kvinden
T:For kvinden
T:Oscar Borg
T:A. F.
C:Oscar Borg
%%score [ 1 2 3 4 ]
L:1/8
Q:1/4=98
M:4/4
K:Eb
V:1 treble-8 nm="T1"
V:2 treble-8 nm="T2"
V:3 bass nm="B1"
V:4 bass nm="B2"
V:1
"^Allegro maestoso"!f! B4- B E (3(FG) A | B3/2 c/ !>!B3 z (3(E G) B | !>!e6 !>!e2 | %3
w: 1. Ven- * ne ska- * re|syng den ud, ju- be- len|som oss|
w: 2. Men _ af alt _ det|skjøn- ne, som kan _ be-|aan- de|
w: 3. Der- * for er _ vår|sang i dag vi- * et|kvin- dens|
 !>!d2 !>!d2 z4 | c4- c F (3(GA) B | c3/2 d/ !>!c3 z (3(FA) c | !>!f6 !>!f2 | !>!e2 !>!e2 z4 || %8
w: fyl- der.|Lad _ vor sang _ jer|brin- ge bud, hvad _ der|os for-|tryl- ler.|
w: san- gen,|et _ det var _ som|al- tid kom al- * er-|først i|ran- gen.|
w: hæ- der.|Hun, _ hos hvem _ hvert|hjer- te- slag, kjær- * lig-|he- den|fre- der.|
!p!"^dolce" e3 d c2 G2 | B3 A G4 |!<(! c3 c d2 d2!<)! |!>(! e3 c B4!>)! |!<(! g3 f e2 e2!<)! | %13
w: Alt, hvad der er|skjønt og godt,|san- gen har den|ev- ne faat|frem for jer at|
w: Kjær- lig- he- den|er den magt|som med san- gen|staar i pagt,|er dens fyl- gje|
w: Hun, som os saa|man- gen gang|ma- net til en|frei- dig sang,|hen- de vil vi|
!f!!<(! e2 =e2 f2 g2!<)! |!ff! a6 d2 | f4 e2 z2 |] %16
w: fø- re, frem for|jer at|fø- re.|
w: ble- ven, er dens|fyl- gje|ble- ven.|
w: pri- se, hen- de|vil vi|pri- se.|
V:2
!f! B4- B E (3(FG) A | B3/2 c/ !>!B3 z (3(E G) B | !>!B6 !>!c2 | !>!=B2 !>!B2 z4 | %4
w: 1. Ven- * ne ska- * re|syng den ud, ju- be- len|som oss|fyl- der.|
w: 2. Men _ af alt _ det|skjøn- ne, som kan _ be-|aan- de|san- gen,|
w: 3. Der- * for er _ vår|sang i dag vi- * et|kvin- dens|hæ- der.|
 c4- c F (3(GA) B | c3/2 d/ !>!c3 z (3(FA) c | !>!c6 !>!c2 | !>!B2 !>!B2 z4 || %8
w: Lad _ vor sang _ jer|brin- ge bud, hvad _ der|os for-|tryl- ler.|
w: et _ det var _ som|al- tid kom al- * er-|først i|ran- gen.|
w: Hun, _ hos hvem _ hvert|hjer- te- slag, kjær- * lig-|he- den|fre- der.|
!p!"^dolce" c3 B A2 G2 | F3 F G4 |!<(! c3 c B2 B2!<)! |!>(! B3 =A B4!>)! |!<(! _d3 d d2 d2!<)! | %13
w: Alt hvad der er|skjønt og godt,|san- gen har den|ev- ne faat|frem for jer at|
w: Kjær- lig- he- den|er den magt|som med san- gen|staar i pagt,|er dens fyl- gje|
w: Hun, som os saa|man- gen gang|ma- net til en|frei- dig sang,|hen- de vil vi|
!f!!<(! c2 c2 c2 c2!<)! |!ff! c6 B2 | d4 B2 z2 |] %16
w: fø- re, frem for|jer at|fø- re.|
w: ble- ven, er dens|fyl- gje|ble- ven.|
w: pri- se, hen- de|vil vi|pri- se.|
V:3
!f! B,4- B, E, (3(F,G,) A, | B,3/2 C/ !>!B,3 z (3(E, G,) B, | !>!G,6 !>!G,2 | !>!G,2 !>!G,2 z4 | %4
w: 1. Ven- * ne ska- * re|syng den ud, ju- be- len|som oss|fyl- der.|
w: 2. Men _ af alt _ det|skjøn- ne, som kan _ be-|aan- de|san- gen,|
w: 3. Der- * for er _ vår|sang i dag vi- * et|kvin- dens|hæ- der.|
 C4- C F, (3(G,A,) B, | C3/2 D/ !>!C3 z (3(F,A,) C | !>!A,6 !>!A,2 | !>!G,2 !>!G,2 z4 || %8
w: Lad _ vor sang _ jer|brin- ge bud, hvad _ der|os for-|tryl- ler.|
w: et _ det var _ som|al- tid kom al- * er-|først i|ran- gen.|
w: Hun, _ hos hvem _ hvert|hjer- te- slag, kjær- * lig-|he- den|fre- der.|
!p!"^dolce" G,3 G, E,2 E,2 | D,3 D, E,4 |!<(! A,3 A, A,2 A,2!<)! |!>(! G,3 ^F, G,4!>)! | %12
w: Alt hvad der er|skjønt og godt,|san- gen har den|ev- ne faat|
w: Kjær- lig- he- den|er den magt|som med san- gen|staar i pagt,|
w: Hun, som os saa|man- gen gang|ma- net til en|frei- dig sang,|
!<(! B,3 B, B,2 =B,2!<)! |!f!!<(! C2 _B,2 A,2 B,2!<)! |!ff! A,6 A,2 | A,4 G,2 z2 |] %16
w: frem for jer at|fø- re, frem for|jer at|fø- re.|
w: er dens fyl- gje|ble- ven, er dens|fyl- gje|ble- ven.|
w: hen- de vil vi|pri- se, hen- de|vil vi|pri- se.|
V:4
!f! B,4- B, E, (3(F,G,) A, | B,3/2 C/ !>!B,3 z (3(E, G,) B, | !>!E,6 !>!C,2 | !>!G,,2 !>!G,,2 z4 | %4
w: 1. Ven- * ne ska- * re|syng den ud, ju- be- len|som oss|fyl- der.|
w: 2. Men _ af alt _ det|skjøn- ne, som kan _ be-|aan- de|san- gen,|
w: 3. Der- * for er * vår|sang i dag vi- * et|kvin- dens|hæ- der.|
 C4- C F, (3(G,A,) B, | C3/2 D/ !>!C3 z (3(F,A,) C | !>!F,6 !>!B,,2 | !>!E,2 !>!E,2 z4 || %8
w: Lad _ vor sang _ jer|brin- ge bud, hvad _ der|os for-|tryl- ler.|
w: et _ det var _ som|al- tid kom al- * er-|først i|ran- gen.|
w: Hun, _ hos hvem _ hvert|hjer- te- slag, kjær- * lig-|he- den|fre- der.|
!p!"^dolce" C,3 G,, A,,2 E,2 | D,3 B,, E,4 |!<(! A,3 A, F,2 F,2!<)! |!>(! E,3 E, E,4!>)! | %12
w: Alt hvad der er|skjønt og godt,|san- gen har den|ev- ne faat|
w: Kjær- lig- he- den|er den magt|som med san- gen|staar i pagt,|
w: Hun, som os saa|man- gen gang|ma- net til en|frei- dig sang,|
!<(! E,3 F, G,2 G,2!<)! |!f!!<(! A,2 G,2 F,2 =E,2!<)! |!ff! F,6 B,,2 | B,,4 [E,,E,]2 z2 |] %16
w: frem for jer at|fø- re, frem for|jer at|fø- re.|
w: er dens fyl- gje|ble- ven, er dens|fyl- gje|ble- ven.|
w: hen- de vil vi|pri- se, hen- de|vil vi|pri- se.|

